Numix-GalliumOS/48/devices/audio-input-microphone.svg

<?xml version="1.0" encoding="UTF-8" standalone="no"?>
<svg
   xmlns:dc="http://purl.org/dc/elements/1.1/"
   xmlns:cc="http://creativecommons.org/ns#"
   xmlns:rdf="http://www.w3.org/1999/02/22-rdf-syntax-ns#"
   xmlns:svg="http://www.w3.org/2000/svg"
   xmlns="http://www.w3.org/2000/svg"
   xmlns:sodipodi="http://sodipodi.sourceforge.net/DTD/sodipodi-0.dtd"
   xmlns:inkscape="http://www.inkscape.org/namespaces/inkscape"
   viewBox="0 0 48 48"
   id="svg2"
   version="1.1"
   inkscape:version="0.91 r"
   sodipodi:docname="stock_mic.svg">
  <metadata
     id="metadata26">
    <rdf:RDF>
      <cc:Work
         rdf:about="">
        <dc:format>image/svg+xml</dc:format>
        <dc:type
           rdf:resource="http://purl.org/dc/dcmitype/StillImage" />
      </cc:Work>
    </rdf:RDF>
  </metadata>
  <defs
     id="defs24" />
  <sodipodi:namedview
     pagecolor="#ffffff"
     bordercolor="#666666"
     borderopacity="1"
     objecttolerance="10"
     gridtolerance="10"
     guidetolerance="10"
     inkscape:pageopacity="0"
     inkscape:pageshadow="2"
     inkscape:window-width="1920"
     inkscape:window-height="1056"
     id="namedview22"
     showgrid="true"
     inkscape:zoom="3.9999999"
     inkscape:cx="-77.162029"
     inkscape:cy="10.62154"
     inkscape:window-x="0"
     inkscape:window-y="24"
     inkscape:window-maximized="1"
     inkscape:current-layer="svg2">
    <inkscape:grid
       type="xygrid"
       id="grid4165" />
  </sodipodi:namedview>
  <rect
     style="opacity:1;fill:#d6d6d6;fill-opacity:1;fill-rule:nonzero;stroke:none;stroke-width:0.1;stroke-linecap:butt;stroke-linejoin:miter;stroke-miterlimit:4;stroke-dasharray:none;stroke-dashoffset:0;stroke-opacity:1"
     id="rect4167"
     width="14"
     height="25"
     x="17"
     y="7"
     rx="8"
     ry="8" />
  <path
     style="opacity:1;fill:#373737;fill-opacity:1;fill-rule:nonzero;stroke:none;stroke-width:2;stroke-linecap:round;stroke-linejoin:miter;stroke-miterlimit:4;stroke-dasharray:none;stroke-dashoffset:0;stroke-opacity:1"
     inkscape:transform-center-x="-0.0076532563"
     inkscape:transform-center-y="0.24807196"
     d="M 17,25.003856 14,26.5 14.02296,25 Z"
     id="path4171"
     inkscape:connector-curvature="0"
     sodipodi:nodetypes="cccc" />
  <path
     sodipodi:nodetypes="cccc"
     inkscape:connector-curvature="0"
     id="path4186"
     d="M 31,25.003856 34,26.5 33.97704,25 Z"
     inkscape:transform-center-y="0.24807196"
     inkscape:transform-center-x="0.0076532563"
     style="opacity:1;fill:#373737;fill-opacity:1;fill-rule:nonzero;stroke:none;stroke-width:2;stroke-linecap:round;stroke-linejoin:miter;stroke-miterlimit:4;stroke-dasharray:none;stroke-dashoffset:0;stroke-opacity:1" />
  <path
     style="color:#000000;font-style:normal;font-variant:normal;font-weight:normal;font-stretch:normal;font-size:medium;line-height:normal;font-family:sans-serif;text-indent:0;text-align:start;text-decoration:none;text-decoration-line:none;text-decoration-style:solid;text-decoration-color:#000000;letter-spacing:normal;word-spacing:normal;text-transform:none;direction:ltr;block-progression:tb;writing-mode:lr-tb;baseline-shift:baseline;text-anchor:start;white-space:normal;clip-rule:nonzero;display:inline;overflow:visible;visibility:visible;opacity:1;isolation:auto;mix-blend-mode:normal;color-interpolation:sRGB;color-interpolation-filters:linearRGB;solid-color:#000000;solid-opacity:1;fill:#547181;fill-opacity:1;fill-rule:nonzero;stroke:none;stroke-width:2;stroke-linecap:round;stroke-linejoin:miter;stroke-miterlimit:4;stroke-dasharray:none;stroke-dashoffset:0;stroke-opacity:1;color-rendering:auto;image-rendering:auto;shape-rendering:auto;text-rendering:auto;enable-background:accumulate"
     d="M 13.984375,23.986328 A 1.0001,1.0001 0 0 0 13,25 c 0,3.928512 2.097972,7.563064 5.5,9.527344 3.402028,1.96428 7.597972,1.96428 11,0 C 32.902028,32.563064 35,28.928512 35,25 a 1.0001,1.0001 0 1 0 -2,0 c 0,3.21723 -1.714006,6.186331 -4.5,7.794922 -2.785994,1.608591 -6.214007,1.608591 -9,0 C 16.714007,31.186331 15,28.21723 15,25 a 1.0001,1.0001 0 0 0 -1.015625,-1.013672 z"
     id="path4169"
     inkscape:connector-curvature="0" />
  <path
     style="fill:#547181;fill-opacity:1;fill-rule:evenodd;stroke:none;stroke-width:1px;stroke-linecap:butt;stroke-linejoin:miter;stroke-opacity:1"
     d="m 23,35.8 c -0.386198,2.896328 -2.614503,4.703181 -5,6.2 l 12,0 c -2.385497,-1.496819 -4.613802,-3.303672 -5,-6.2 z"
     id="path4176"
     inkscape:connector-curvature="0"
     sodipodi:nodetypes="ccccc" />
  <rect
     style="opacity:1;fill:#373737;fill-opacity:1;fill-rule:nonzero;stroke:none;stroke-width:2;stroke-linecap:round;stroke-linejoin:miter;stroke-miterlimit:4;stroke-dasharray:none;stroke-dashoffset:0;stroke-opacity:1"
     id="rect4181"
     width="14"
     height="1"
     x="17"
     y="23" />
  <path
     style="opacity:1;fill:#547181;fill-opacity:1;fill-rule:nonzero;stroke:none;stroke-width:0.1;stroke-linecap:butt;stroke-linejoin:miter;stroke-miterlimit:4;stroke-dasharray:none;stroke-dashoffset:0;stroke-opacity:1"
     d="m 31,24 c 0,4.432 -3.122,8 -7,8 -3.878,0 -7,-3.568 -7,-8 z"
     id="rect4183"
     inkscape:connector-curvature="0"
     sodipodi:nodetypes="cscc" />
  <path
     style="opacity:1;fill:#828282;fill-opacity:1;fill-rule:nonzero;stroke:none;stroke-width:2;stroke-linecap:round;stroke-linejoin:miter;stroke-miterlimit:4;stroke-dasharray:none;stroke-dashoffset:0;stroke-opacity:1"
     d="m 17,18 0,2 4,0 c 0.554,0 1,-0.446 1,-1 0,-0.554 -0.446,-1 -1,-1 l -4,0 z"
     id="rect4188"
     inkscape:connector-curvature="0" />
  <path
     style="opacity:1;fill:#828282;fill-opacity:1;fill-rule:nonzero;stroke:none;stroke-width:2;stroke-linecap:round;stroke-linejoin:miter;stroke-miterlimit:4;stroke-dasharray:none;stroke-dashoffset:0;stroke-opacity:1"
     d="m 17,15 0,2 4,0 c 0.554,0 1,-0.446 1,-1 0,-0.554 -0.446,-1 -1,-1 l -4,0 z"
     id="rect4190"
     inkscape:connector-curvature="0" />
  <path
     style="opacity:1;fill:#828282;fill-opacity:1;fill-rule:nonzero;stroke:none;stroke-width:2;stroke-linecap:round;stroke-linejoin:miter;stroke-miterlimit:4;stroke-dasharray:none;stroke-dashoffset:0;stroke-opacity:1"
     d="M 17.511719 12 C 17.289359 12.630638 17.134416 13.300464 17.058594 14 L 21 14 C 21.554 14 22 13.554 22 13 C 22 12.446 21.554 12 21 12 L 17.511719 12 z "
     id="rect4192" />
  <path
     id="path4203"
     d="m 31,18 0,2 -4,0 c -0.554,0 -1,-0.446 -1,-1 0,-0.554 0.446,-1 1,-1 l 4,0 z"
     style="opacity:1;fill:#828282;fill-opacity:1;fill-rule:nonzero;stroke:none;stroke-width:2;stroke-linecap:round;stroke-linejoin:miter;stroke-miterlimit:4;stroke-dasharray:none;stroke-dashoffset:0;stroke-opacity:1"
     inkscape:connector-curvature="0" />
  <path
     id="path4205"
     d="m 31,15 0,2 -4,0 c -0.554,0 -1,-0.446 -1,-1 0,-0.554 0.446,-1 1,-1 l 4,0 z"
     style="opacity:1;fill:#828282;fill-opacity:1;fill-rule:nonzero;stroke:none;stroke-width:2;stroke-linecap:round;stroke-linejoin:miter;stroke-miterlimit:4;stroke-dasharray:none;stroke-dashoffset:0;stroke-opacity:1"
     inkscape:connector-curvature="0" />
  <path
     style="opacity:1;fill:#828282;fill-opacity:1;fill-rule:nonzero;stroke:none;stroke-width:2;stroke-linecap:round;stroke-linejoin:miter;stroke-miterlimit:4;stroke-dasharray:none;stroke-dashoffset:0;stroke-opacity:1"
     d="M 27 12 C 26.446 12 26 12.446 26 13 C 26 13.554 26.446 14 27 14 L 30.941406 14 C 30.865584 13.300464 30.710641 12.630638 30.488281 12 L 27 12 z "
     id="path4207" />
  <path
     style="opacity:0.2;fill:#ffffff;fill-opacity:1;fill-rule:nonzero;stroke:none;stroke-width:0.1;stroke-linecap:butt;stroke-linejoin:miter;stroke-miterlimit:4;stroke-dasharray:none;stroke-dashoffset:0;stroke-opacity:1"
     d="M 25 7.0898438 L 25 31.910156 C 26.559116 31.656543 27.951514 30.826828 29 29.605469 L 29 9.3945312 C 27.951514 8.1731724 26.559116 7.343457 25 7.0898438 z "
     id="rect4211" />
  <path
     style="opacity:0.2;fill:#ffffff;fill-opacity:1;fill-rule:nonzero;stroke:none;stroke-width:0.1;stroke-linecap:butt;stroke-linejoin:miter;stroke-miterlimit:4;stroke-dasharray:none;stroke-dashoffset:0;stroke-opacity:1"
     d="M 29 32.460938 C 28.833483 32.572545 28.67515 32.693793 28.5 32.794922 C 27.40669 33.426183 26.213454 33.799739 25 33.935547 L 25 35.935547 C 26.379846 35.809699 27.73405 35.420924 29 34.773438 L 29 32.460938 z "
     id="path4166" />
  <path
     style="opacity:0.2;fill:#ffffff;fill-opacity:1;fill-rule:nonzero;stroke:none;stroke-width:0.1;stroke-linecap:butt;stroke-linejoin:miter;stroke-miterlimit:4;stroke-dasharray:none;stroke-dashoffset:0;stroke-opacity:1"
     d="M 25 35.800781 L 25 42 L 29 42 L 29 41.337891 C 27.020749 39.964604 25.331351 38.28578 25 35.800781 z "
     id="path4184" />
</svg>

<svg xmlns="http://www.w3.org/2000/svg" viewBox="0 0 48 48">
 <rect width="14" height="25" x="17" y="7" rx="7" ry="8" style="fill:#d6d6d6;opacity:1;fill-opacity:1;stroke:none;fill-rule:nonzero"/>
 <path d="m 17 25 -3 1.496 0.023 -1.5" style="fill:#373737;opacity:1;fill-opacity:1;stroke:none;fill-rule:nonzero"/>
 <path d="m 31 25 3 1.496 -0.023 -1.5" style="fill:#373737;opacity:1;fill-opacity:1;stroke:none;fill-rule:nonzero"/>
 <path d="M 13.984 23.986 A 1 1 0 0 0 13 25 c 0 3.929 2.098 7.563 5.5 9.527 3.402 1.964 7.598 1.964 11 0 C 32.902 32.563 35 28.929 35 25 a 1 1 0 1 0 -2 0 c 0 3.217 -1.714 6.186 -4.5 7.795 -2.786 1.609 -6.214 1.609 -9 0 C 16.714 31.19 15 28.22 15 25 a 1 1 0 0 0 -1.016 -1.014 z" mix-blend-mode="normal" isolation="auto" white-space="normal" solid-opacity="1" solid-color="#000000" style="visibility:visible;shape-rendering:auto;color-interpolation-filters:linearRGB;fill:#547181;opacity:1;image-rendering:auto;fill-opacity:1;stroke:none;display:inline;color:#000;fill-rule:nonzero;color-rendering:auto;color-interpolation:sRGB"/>
 <path d="m 23 35.8 c -0.386 2.896 -2.615 4.703 -5 6.2 l 12 0 c -2.385 -1.497 -4.614 -3.304 -5 -6.2 z" style="fill:#547181;fill-opacity:1;stroke:none;fill-rule:evenodd"/>
 <rect width="14" height="1" x="17" y="23" style="fill:#373737;opacity:1;fill-opacity:1;stroke:none;fill-rule:nonzero"/>
 <path d="m 31 24 c 0 4.432 -3.122 8 -7 8 -3.878 0 -7 -3.568 -7 -8 z" style="fill:#547181;opacity:1;fill-opacity:1;stroke:none;fill-rule:nonzero"/>
 <path d="m 17 18 0 2 4 0 c 0.554 0 1 -0.446 1 -1 0 -0.554 -0.446 -1 -1 -1 l -4 0 z" style="fill:#828282;opacity:1;fill-opacity:1;stroke:none;fill-rule:nonzero"/>
 <path d="m 17 15 0 2 4 0 c 0.554 0 1 -0.446 1 -1 0 -0.554 -0.446 -1 -1 -1 l -4 0 z" style="fill:#828282;opacity:1;fill-opacity:1;stroke:none;fill-rule:nonzero"/>
 <path d="m 17.512 12 c -0.222 0.631 -0.377 1.3 -0.453 2 l 3.941 0 c 0.554 0 1 -0.446 1 -1 c 0 -0.554 -0.446 -1 -1 -1 l -3.488 0 z" style="fill:#828282;opacity:1;fill-opacity:1;stroke:none;fill-rule:nonzero"/>
 <path d="m 31 18 0 2 -4 0 c -0.554 0 -1 -0.446 -1 -1 0 -0.554 0.446 -1 1 -1 l 4 0 z" style="fill:#828282;opacity:1;fill-opacity:1;stroke:none;fill-rule:nonzero"/>
 <path d="m 31 15 0 2 -4 0 c -0.554 0 -1 -0.446 -1 -1 0 -0.554 0.446 -1 1 -1 l 4 0 z" style="fill:#828282;opacity:1;fill-opacity:1;stroke:none;fill-rule:nonzero"/>
 <path d="m 27 12 c -0.554 0 -1 0.446 -1 1 c 0 0.554 0.446 1 1 1 l 3.941 0 c -0.076 -0.7 -0.231 -1.369 -0.453 -2 l -3.488 0 z" style="fill:#828282;opacity:1;fill-opacity:1;stroke:none;fill-rule:nonzero"/>
 <path d="m 25 7.09 l 0 24.82 c 1.559 -0.254 2.952 -1.083 4 -2.305 l 0 -20.21 c -1.048 -1.221 -2.441 -2.051 -4 -2.305 z" style="fill:#fff;opacity:0.2;fill-opacity:1;stroke:none;fill-rule:nonzero"/>
 <path d="m 29 32.461 c -0.167 0.112 -0.325 0.233 -0.5 0.334 c -1.093 0.631 -2.287 1 -3.5 1.141 l 0 2 c 1.38 -0.126 2.734 -0.515 4 -1.162 l 0 -2.313 z" style="fill:#fff;opacity:0.2;fill-opacity:1;stroke:none;fill-rule:nonzero"/>
 <path d="m 25 35.801 l 0 6.199 l 4 0 l 0 -0.662 c -1.979 -1.373 -3.669 -3.052 -4 -5.537 z" style="fill:#fff;opacity:0.2;fill-opacity:1;stroke:none;fill-rule:nonzero"/>
</svg>
